<?xml version="1.0" encoding="UTF-8"?>
<map version="1.10" tiledversion="1.12.2" orientation="orthogonal" renderorder="right-down" width="40" height="22" tilewidth="32" tileheight="32" infinite="0" nextlayerid="15" nextobjectid="110">
 <tileset firstgid="1" name="asd" tilewidth="32" tileheight="32" tilecount="1056" columns="44">
  <image source="mapcourt.png" width="1408" height="768"/>
 </tileset>
 <imagelayer id="11" name="Image Layer 4">
  <image source="mapcourt.png" width="1408" height="768"/>
 </imagelayer>
 <imagelayer id="9" name="UPPERING">
  <image source="upperring.png" width="1408" height="768"/>
 </imagelayer>
 <objectgroup id="12" name="throw area">
  <object id="107" x="198.667" y="333.333">
   <polygon points="0,0 204,-0.666667 190.667,412 -56,413.333"/>
  </object>
 </objectgroup>
 <objectgroup color="#00ffff" id="6" name="collision1">
  <object id="17" x="1283.33" y="646.667" width="0.666667" height="4.66667"/>
  <object id="25" x="141" y="748" width="1166" height="18"/>
  <object id="53" x="194" y="309" width="1051" height="23"/>
  <object id="94" x="194" y="335">
   <polygon points="0,0 -56,434 -194,433 -197,-341 -19,-340"/>
  </object>
  <object id="106" x="1227" y="332">
   <polygon points="0,0 56,431 181,431 182,-351 -1,-345"/>
  </object>
 </objectgroup>
 <objectgroup id="10" name="courtline">
  <object id="99" x="404" y="331">
   <polygon points="0,0 -14.5,419.5 -5,419.5 9.5,-2"/>
  </object>
 </objectgroup>
 <objectgroup id="7" name="collision2">
  <object id="59" x="-12" y="142.667" width="1442.67" height="49.3333"/>
  <object id="69" x="42.6667" y="746.667" width="1318.67" height="20"/>
  <object id="85" x="185" y="330"/>
  <object id="101" x="197.333" y="333.333">
   <polygon points="0,0 -52,430.667 -197.333,429.333 -200,-165.333 -4,-168"/>
  </object>
  <object id="102" x="1226.67" y="336">
   <polygon points="0,0 54.6667,428 182.667,428 181.333,-146.667 -4,-146.667"/>
  </object>
 </objectgroup>
 <objectgroup id="14" name="can zone">
  <object id="109" x="767.333" y="334">
   <polygon points="0,0 2,412 233.333,412.667 232,-2"/>
  </object>
 </objectgroup>
</map>
